X: 465
T: A Wee Scotch
R: jig
M: 6/8
K: Amajor
|:AB|ABc BAF|def ecA|def eac|BAB cAF|
ABc BAF|def ecA|aec BAB|cAA A-:|
|:Ae|aec aec|def ecA|aec aec|Bdc B3|
ABc BAF|def ecA|aec BAB|cAA A-:|

